X:190
T:Running Bourree,The. (p)1665.PLFD.190
M:4/4
L:1/4
Q:1/2=180
S:Playford, Dancing Master,2nd Supp. to 3rd Ed.,1665
O:England
H:166
Z:Chris Partington
K:F
d|f2g2|a>gad|f2g2a3d|f2g2|a>gad|f2g2a3|
|:a|a>gf>e|d>cd>e|f2d>g|g2e>a|
a>gf>e|d>cd>e|f2e>f|d3:|

